X:773
T:Reel 773
M:4/4
K:Gmaj
L:1/8
G>B (3BAB dBBd| (3efg f>d  (3gfe f2|B>B (3BBB cBBG| (3ABA =fd c2:||2B>d (3ABc d2=f2| (3def gd B>G (3AGA |=fedc B>c (3cBA |G>g (3fed e>g (3fed |B>A (3AAA f>A (3ABA |d>f (3fed g>A (3AAA |=fedc BGG2|f>g (3fga g>f (3fed |c>A (3AAA a>g (3fef |g2gf gagf| (3efg dc BGG2|
